packages/icons/svgs/duotone/forecast-duotone.svg

<svg width="24" height="24" viewBox="0 0 24 24" fill="none" xmlns="http://www.w3.org/2000/svg">
<path opacity="0.5" fill-rule="evenodd" clip-rule="evenodd" d="M12 3.10001C12.5523 3.10001 13 3.54772 13 4.10001V13.9C13 14.4523 12.5523 14.9 12 14.9C11.4477 14.9 11 14.4523 11 13.9V4.10001C11 3.54772 11.4477 3.10001 12 3.10001Z" fill="black"/>
<path opacity="0.5" fill-rule="evenodd" clip-rule="evenodd" d="M18 4.10001C18.5523 4.10001 19 4.54772 19 5.10001V12.9C19 13.4523 18.5523 13.9 18 13.9C17.4477 13.9 17 13.4523 17 12.9V5.10001C17 4.54772 17.4477 4.10001 18 4.10001Z" fill="black"/>
<path fill-rule="evenodd" clip-rule="evenodd" d="M2 0C2.55228 0 3 0.447715 3 1V23C3 23.5523 2.55228 24 2 24C1.44772 24 1 23.5523 1 23V1C1 0.447715 1.44772 0 2 0Z" fill="black"/>
<path fill-rule="evenodd" clip-rule="evenodd" d="M5.35727 2.2339C5.58373 2.0439 5.88267 1.96384 6.17379 2.01521L23.1738 5.01521C23.6516 5.09954 24 5.51475 24 5.99999V12C24 12.4852 23.6516 12.9004 23.1738 12.9848L6.17379 15.9848C5.88267 16.0361 5.58373 15.9561 5.35727 15.7661C5.1308 15.5761 5 15.2956 5 15V2.99999C5 2.70438 5.1308 2.42391 5.35727 2.2339ZM7 4.19191V13.8081L22 11.161V6.83897L7 4.19191Z" fill="black"/>
</svg>

<svg width="24" height="24" viewBox="0 0 24 24" xmlns="http://www.w3.org/2000/svg"><path opacity=".5" fill-rule="evenodd" clip-rule="evenodd" d="M12 3.1a1 1 0 0 1 1 1v9.8a1 1 0 1 1-2 0V4.1a1 1 0 0 1 1-1Zm6 1a1 1 0 0 1 1 1v7.8a1 1 0 1 1-2 0V5.1a1 1 0 0 1 1-1Z"/><path fill-rule="evenodd" clip-rule="evenodd" d="M2 0a1 1 0 0 1 1 1v22a1 1 0 1 1-2 0V1a1 1 0 0 1 1-1Zm3.357 2.234a1 1 0 0 1 .817-.219l17 3A1 1 0 0 1 24 6v6a1 1 0 0 1-.826.985l-17 3A1 1 0 0 1 5 15V3a1 1 0 0 1 .357-.766ZM7 4.192v9.616l15-2.647V6.839L7 4.192Z"/></svg>
